icons/banking/icon_plan-expenses_xl_white.svg

<svg width="36" height="36" viewBox="0 0 36 36" xmlns="http://www.w3.org/2000/svg">
  <g fill="none" fill-rule="evenodd">
    <path d="M0 0h36v36H0z"/>
    <path d="M7 1c-.6 0-1 .4-1 1v3c0 .5.4 1 1 1 .5 0 1-.4 1-1V2c0-.6-.4-1-1-1zM18 1c-.6 0-1 .4-1 1v3c0 .5.4 1 1 1 .5 0 1-.4 1-1V2c0-.6-.4-1-1-1z" fill="#FFF" opacity=".3"/>
    <path d="M11 24H3.8C2.2 24 1 22.8 1 21.2V5.8C1 4.2 2.2 3 3.8 3H6v1H3.8C2.8 4 2 4.8 2 5.8v15.5c0 1 .8 1.8 1.8 1.8H11v.9zM24 11h-1V5.8c0-1-.8-1.8-1.8-1.8H19V3h2.2C22.8 3 24 4.2 24 5.8V11zM8 3h9v1H8z" fill="#FFF"/>
    <path d="M24 24l5.5-9.5c1.7 1 3.1 2.4 4 4 .9 1.6 1.5 3.6 1.5 5.5H24z" fill="#FFF" opacity=".3"/>
    <path d="M24 35c-6.1 0-11-4.9-11-11s4.9-11 11-11v1c-5.5 0-10 4.5-10 10s4.5 10 10 10c4.7 0 8.8-3.4 9.8-8l1 .2C33.7 31.3 29.2 35 24 35z" fill="#FFF"/>
    <path d="M27 14.5c-1-.3-2-.5-3-.5v-1c1.1 0 2.2.2 3.3.5l-.3 1z" fill="#FFF"/>
  </g>
</svg>

<?xml version="1.0" encoding="UTF-8"?>
<svg width="36px" height="36px" viewBox="0 0 36 36" version="1.1" xmlns="http://www.w3.org/2000/svg" xmlns:xlink="http://www.w3.org/1999/xlink">
    <!-- Generator: Sketch 47.1 (45422) - http://www.bohemiancoding.com/sketch -->
    <title>icon_plans-by-category_xl_white</title>
    <desc>Created with Sketch.</desc>
    <defs></defs>
    <g id="Symbols" stroke="none" stroke-width="1" fill="none" fill-rule="evenodd">
        <g id="icon_plans-by-category_xl_white">
            <g id="ungroup">
                <g>
                    <rect id="Rectangle-path" x="0" y="0" width="36" height="36"></rect>
                    <path d="M7,1 L7,1 C6.4,1 6,1.4 6,2 L6,5 C6,5.5 6.4,6 7,6 L7,6 C7.5,6 8,5.6 8,5 L8,2 C8,1.4 7.6,1 7,1 L7,1 Z" id="Shape" fill="#FFFFFF" opacity="0.3"></path>
                    <path d="M18,1 L18,1 C17.4,1 17,1.4 17,2 L17,5 C17,5.5 17.4,6 18,6 L18,6 C18.5,6 19,5.6 19,5 L19,2 C19,1.4 18.6,1 18,1 L18,1 Z" id="Shape" fill="#FFFFFF" opacity="0.3"></path>
                    <path d="M11,24 L3.8,24 C2.2,24 1,22.8 1,21.2 L1,5.8 C1,4.2 2.2,3 3.8,3 L6,3 L6,4 L3.8,4 C2.8,4 2,4.8 2,5.8 L2,21.3 C2,22.3 2.8,23.1 3.8,23.1 L11,23.1 L11,24 L11,24 Z" id="Shape" fill="#FFFFFF"></path>
                    <path d="M24,11 L23,11 L23,5.8 C23,4.8 22.2,4 21.2,4 L19,4 L19,3 L21.2,3 C22.8,3 24,4.2 24,5.8 L24,11 L24,11 Z" id="Shape" fill="#FFFFFF"></path>
                    <rect id="Rectangle-path" fill="#FFFFFF" x="8" y="3" width="9" height="1"></rect>
                    <path d="M24,24 L29.5,14.5 C31.2,15.5 32.6,16.9 33.5,18.5 C34.4,20.1 35,22.1 35,24 L24,24 L24,24 Z" id="Shape" fill="#FFFFFF" opacity="0.3"></path>
                    <path d="M24,35 C17.9,35 13,30.1 13,24 C13,17.9 17.9,13 24,13 L24,14 C18.5,14 14,18.5 14,24 C14,29.5 18.5,34 24,34 C28.7,34 32.8,30.6 33.8,26 L34.8,26.2 C33.7,31.3 29.2,35 24,35 L24,35 Z" id="Shape" fill="#FFFFFF"></path>
                    <path d="M27,14.5 C26,14.2 25,14 24,14 L24,13 C25.1,13 26.2,13.2 27.3,13.5 L27,14.5 L27,14.5 Z" id="Shape" fill="#FFFFFF"></path>
                    <g id="Group" opacity="0.3"></g>
                </g>
            </g>
        </g>
    </g>
</svg>
